packages/core/src/svgs/tokens/mono/RTM.svg

<svg width="24" height="24" viewBox="0 0 24 24" fill="none" xmlns="http://www.w3.org/2000/svg">
<path d="M9.71794 11.7687C6.89284 12.0437 5.66779 14.025 5.40527 14.9814C5.53027 15.1313 6.08031 15.4313 7.31787 15.4313C8.86799 15.4313 10.3305 13.7625 9.71794 11.7687ZM15.7057 8.39353C14.8565 8.89725 13.9027 9.1987 12.9181 9.27483C13.5306 9.39981 15.1995 9.46237 16.937 8.74353C18.2082 8.22039 19.3974 7.51735 20.4686 6.65596C20.8435 6.36843 21.6685 5.7684 21.9999 5.68716C20.2935 5.5809 16.9558 7.59349 15.7057 8.39353Z" fill="white"/>
<path d="M3.84303 7.73749C2.2492 9.40633 2.40547 13.1939 2.65548 14.8628L4.03053 13.1064C6.38065 9.2125 11.1497 7.96251 11.8747 7.73125C12.4623 7.55624 16.2124 6.25618 18.0188 5.63115C19.1 4.92486 20.2376 3.33105 20.6751 2.62476C19.925 3.28729 17.4624 4.16858 13.5123 4.4686C9.55581 4.76235 6.14939 5.31239 3.83679 7.73749H3.84303Z" fill="white"/>
<path d="M7.61785 11.0189C5.24899 11.9377 4.17393 12.8379 3.93018 13.1753C5.76776 10.1001 9.28667 8.45634 10.818 8.01258L18.0496 5.63745C15.0745 7.96257 10.5743 9.87512 7.61161 11.0189H7.61785Z" fill="white"/>
<path d="M2.79871 21.3754C1.42364 18.8441 2.12993 17.0065 2.6612 16.4065C2.7487 16.969 3.10498 18.2003 3.86126 18.5629C2.98622 18.9192 2.78621 20.5879 2.79871 21.3754Z" fill="white"/>
<path d="M6.4185 17.0314C5.05593 17.0314 3.86837 16.6125 3.44336 16.4063C3.95638 17.1242 4.63509 17.7075 5.42183 18.1068C6.20856 18.5061 7.08007 18.7097 7.96226 18.7003C11.0625 18.7003 13.1501 14.5125 13.1501 12.5999C13.1501 11.0686 12.7126 10.3998 12.4875 10.2561C12.8688 15.4501 8.1186 17.0314 6.4185 17.0314Z" fill="white"/>
</svg>

<svg xmlns="http://www.w3.org/2000/svg" width="24" height="24" fill="none" viewBox="0 0 24 24">
    <path fill="#fff" d="M9.718 11.769c-2.825.275-4.05 2.256-4.313 3.212.125.15.675.45 1.913.45 1.55 0 3.013-1.668 2.4-3.662m5.988-3.375a6.4 6.4 0 0 1-2.788.88c.613.126 2.282.188 4.019-.53a14.4 14.4 0 0 0 3.532-2.088c.374-.288 1.2-.888 1.53-.969-1.705-.106-5.043 1.906-6.293 2.707M3.843 7.737c-1.594 1.67-1.438 5.457-1.188 7.126l1.376-1.757c2.35-3.893 7.119-5.143 7.844-5.375.587-.175 4.337-1.475 6.144-2.1 1.081-.706 2.219-2.3 2.656-3.006-.75.662-3.213 1.544-7.163 1.844-3.956.293-7.363.843-9.675 3.268z"/>
    <path fill="#fff" d="M7.618 11.019c-2.369.919-3.444 1.819-3.688 2.156 1.838-3.075 5.357-4.719 6.888-5.162l7.232-2.376c-2.976 2.326-7.476 4.238-10.438 5.382zM2.799 21.375c-1.375-2.53-.67-4.369-.138-4.968.088.562.444 1.793 1.2 2.156-.875.356-1.075 2.025-1.062 2.812m3.62-4.344c-1.363 0-2.55-.418-2.976-.625a5.48 5.48 0 0 0 4.52 2.294c3.1 0 5.187-4.187 5.187-6.1 0-1.531-.437-2.2-.662-2.344.38 5.194-4.37 6.775-6.07 6.775"/>
</svg>
